icons/1_Primary/BitSight.svg

<svg width="1024" height="1024" viewBox="0 0 1024 1024" fill="none" xmlns="http://www.w3.org/2000/svg">
<g clip-path="url(#clip0_2_1659)">
<path d="M512 1024C794.77 1024 1024 794.77 1024 512C1024 229.23 794.77 0 512 0C229.23 0 0 229.23 0 512C0 794.77 229.23 1024 512 1024Z" fill="#9ABEFF"/>
<path d="M446.32 441.57C418.82 441.57 401.51 457.38 401.51 478.1C401.51 496.38 414.88 507.48 435.8 515.02C451.99 520.87 458.38 526.5 458.38 536.1C458.38 546.46 450.1 553.42 435.23 553.42C424.488 553.333 413.939 550.551 404.55 545.33H404.48L399.41 564.53C406.41 568.68 420.34 572.43 433.7 572.43C466.47 572.43 481.92 554.73 481.92 534.43C481.92 516.17 471.18 505.07 449.17 496.78C432.17 490.17 424.86 485.66 424.86 475.86C424.86 468.52 431.27 460.61 445.96 460.61C454.746 460.5 463.423 462.561 471.22 466.61L476.82 448C470.23 444.61 460.05 441.59 446.32 441.59V441.57ZM604.32 442.38C562.32 442.38 533.72 468.17 533.72 508.3C533.54 527.48 540.11 544.16 551.42 554.99C563.47 566.52 579.66 571.94 601.14 571.94C615.067 571.824 628.877 569.383 642 564.72V500.51H597.08V518.77H619.51V550.51C616.44 552.03 610.29 553.16 602.01 553.16C575.64 553.16 557.94 536.07 557.94 507.16C557.94 477.6 577.02 461.59 604.09 461.59C614.01 461.291 623.876 463.157 633 467.06L638 448.41C632.15 445.58 619.92 442.41 604.27 442.41L604.32 442.38ZM205.32 442.7C195.61 442.689 185.919 443.573 176.37 445.34V570.19C184.804 571.26 193.299 571.765 201.8 571.7C222.5 571.7 236.8 567.93 245.69 559.83C249.141 556.565 251.876 552.619 253.721 548.241C255.567 543.864 256.482 539.15 256.41 534.4C256.41 515.58 242.3 505.6 230.22 502.58V502.2C243.61 497.31 251.69 486.57 251.69 474.34C251.69 464.34 247.69 456.82 241.15 451.93C233.25 445.52 222.69 442.71 206.3 442.71H205.3L205.32 442.7ZM300.32 443.64V457.57H339V570.57H355.55V457.57H394.35V443.65L300.32 443.64ZM656.92 443.64V570.57H680.11V514.64H733.76V570.57H757V443.65H733.83V494.49H680.18V443.65L656.92 443.64ZM771.7 443.64V463H807.85V570.57H831V463H867.6V443.6L771.7 443.64ZM269.81 443.64V570.57H286.2V443.65L269.81 443.64ZM495.37 443.64V570.57H518.6V443.65L495.37 443.64ZM205.29 455.28H207.29C223.86 455.28 235.17 461.11 235.17 476C235.17 488.25 224.99 497.28 207.67 497.28H192.82L192.87 456.41C196.968 455.665 201.125 455.284 205.29 455.27V455.28ZM192.81 509.73H206.36C224.24 509.73 239.13 516.88 239.13 534.2C239.13 552.66 223.5 558.87 206.54 558.87C201.951 558.976 197.36 558.722 192.81 558.11V509.73Z" fill="white"/>
</g>
<defs>
<clipPath id="clip0_2_1659">
<rect width="1024" height="1024" fill="white"/>
</clipPath>
</defs>
</svg>

<svg xmlns="http://www.w3.org/2000/svg" viewBox="0 0 1024 1024">
   <circle cx="512" cy="512" r="512" style="fill:#0d80aa"/>
   <path d="M446.32 441.57c-27.5 0-44.81 15.81-44.81 36.53 0 18.28 13.37 29.38 34.29 36.92 16.19 5.85 22.58 11.48 22.58 21.08 0 10.36-8.28 17.32-23.15 17.32a64.21 64.21 0 0 1-30.68-8.09h-.07l-5.07 19.2c7 4.15 20.93 7.9 34.29 7.9 32.77 0 48.22-17.7 48.22-38 0-18.26-10.74-29.36-32.75-37.65-17-6.61-24.31-11.12-24.31-20.92 0-7.34 6.41-15.25 21.1-15.25a53.36 53.36 0 0 1 25.26 6l5.6-18.61c-6.59-3.39-16.77-6.41-30.5-6.41Zm158 .81c-42 0-70.6 25.79-70.6 65.92-.18 19.18 6.39 35.86 17.7 46.69 12.05 11.53 28.24 16.95 49.72 16.95a125.17 125.17 0 0 0 40.86-7.22v-64.21h-44.92v18.26h22.43v31.74c-3.07 1.52-9.22 2.65-17.5 2.65-26.37 0-44.07-17.09-44.07-46 0-29.56 19.08-45.57 46.15-45.57a68.27 68.27 0 0 1 28.91 5.47l5-18.65c-5.85-2.83-18.08-6-33.73-6Zm-399 .32a158.11 158.11 0 0 0-28.95 2.64v124.85a190.56 190.56 0 0 0 25.43 1.51c20.7 0 35-3.77 43.89-11.87a34.29 34.29 0 0 0 10.72-25.43c0-18.82-14.11-28.8-26.19-31.82v-.38c13.39-4.89 21.47-15.63 21.47-27.86 0-10-4-17.52-10.54-22.41-7.9-6.41-18.46-9.22-34.85-9.22h-1Zm95 .94v13.93H339v113h16.55v-113h38.8v-13.92Zm356.6 0v126.93h23.19v-55.93h53.65v55.93H757V443.65h-23.17v50.84h-53.65v-50.84Zm114.78 0V463h36.15v107.57H831V463h36.6v-19.4Zm-501.89 0v126.93h16.39V443.65Zm225.56 0v126.93h23.23V443.65Zm-290.08 11.64h2c16.57 0 27.88 5.83 27.88 20.72 0 12.25-10.18 21.28-27.5 21.28h-14.85l.05-40.87a70.74 70.74 0 0 1 12.42-1.14Zm-12.48 54.45h13.55c17.88 0 32.77 7.15 32.77 24.47 0 18.46-15.63 24.67-32.59 24.67a87.94 87.94 0 0 1-13.73-.76Z" style="fill:#fff"/>
</svg>
